X:608
T: AF AF EHS HIAERTN
N: E1944
O: Europa, Mitteleuropa, Unter - Oesterreich
R: geistlich, Fest - Lied, Weihnachten
M: 3/4
L: 1/8
K: A
E2 | A4B2 | A2cB
AG | F2B2F2 | A4
E2 | A4B2 | A2cB
AG | F2B2F2 | A4z2 |
c2cBAG | F6 |
B2BAGF | E4
E2 | A2A2B2 | A2cB
AG | F2B2G2 | A4

@@@ Tune index: 5292
